icons/mobile/24/svg/racing-24.svg

<svg width="24" height="24" viewBox="0 0 24 24" fill="none" xmlns="http://www.w3.org/2000/svg">
<path d="M14.5625 8.25V11.25L11.5625 10.5V7.5L14.5625 8.25Z" fill="black"/>
<path fill-rule="evenodd" clip-rule="evenodd" d="M4.875 2C5.35825 2 5.75 2.39175 5.75 2.875V3.59961L8.69531 3.125C10.1172 2.89704 11.5995 2.9839 12.9814 3.37988L13.7852 3.60938C15.2741 4.03433 16.8432 4.02787 18.3262 3.58789L18.9512 3.40234C19.6782 3.18834 20.4409 3.32434 21.0479 3.77734C21.6528 4.22929 22.0009 4.92282 22.001 5.67871V12.3115C22.001 13.5705 21.1591 14.6986 19.9521 15.0557L18.8232 15.3896C17.9074 15.6606 16.9644 15.7968 16.0195 15.7969L16.0186 15.7959C15.1066 15.7959 14.1927 15.67 13.3037 15.416L12.5 15.1865C11.3621 14.8616 10.1426 14.7866 8.97266 14.9775L5.75 15.4971V21.125C5.75 21.6082 5.35825 22 4.875 22C4.39175 22 4 21.6082 4 21.125V2.875C4 2.39175 4.39175 2 4.875 2ZM11.5625 7.5H8.5625V4.91895L5.75 5.37305V8.20312L8.5625 7.5V10.5L5.75 11.2031V13.7236L8.5625 13.2695V10.5H11.5625V13.2129C12.0425 13.276 12.5179 13.3711 12.9814 13.5039L13.7852 13.7334C14.0421 13.8067 14.3017 13.8655 14.5625 13.9131V11.25H17.5625V13.8965C17.8188 13.8468 18.074 13.7866 18.3262 13.7119L19.4551 13.3779C19.9231 13.2389 20.25 12.8005 20.25 12.3115V10.5781L17.5625 11.25V8.25L20.25 7.57812V5.67871C20.2499 5.47981 20.159 5.29668 19.999 5.17773C19.8401 5.05985 19.6392 5.02318 19.4473 5.0791L18.8232 5.26465C18.408 5.38748 17.9865 5.48068 17.5625 5.54785V8.25H14.5625V5.56152C14.1396 5.49853 13.7187 5.41013 13.3037 5.29199L12.5 5.0625C12.1926 4.97473 11.8791 4.90636 11.5625 4.85547V7.5Z" fill="black"/>
</svg>

<!-- This Source Code Form is subject to the terms of the Mozilla Public
   - License, v. 2.0. If a copy of the MPL was not distributed with this
   - file, You can obtain one at http://mozilla.org/MPL/2.0/. -->
<svg xmlns="http://www.w3.org/2000/svg" width="24" height="24" fill="none" viewBox="0 0 24 24">
    <path fill="#000" d="M14.563 8.25v3l-3-.75v-3z" />
    <path fill="#000" fill-rule="evenodd" d="M4.875 2c.483 0 .875.392.875.875V3.6l2.945-.475a9.95 9.95 0 0 1 4.286.255l.804.23a8.1 8.1 0 0 0 4.541-.022l.625-.186a2.36 2.36 0 0 1 2.097.375c.605.452.953 1.146.953 1.902v6.633a2.88 2.88 0 0 1-2.049 2.744l-1.129.334a9.9 9.9 0 0 1-2.803.407l-.001-.001a10 10 0 0 1-2.715-.38l-.804-.23a8.15 8.15 0 0 0-3.527-.209l-3.223.52v5.628a.875.875 0 0 1-1.75 0V2.875C4 2.392 4.392 2 4.875 2m6.688 5.5h-3V4.919l-2.813.454v2.83L8.563 7.5v3l-2.813.703v2.52l2.813-.453V10.5h3v2.713q.722.093 1.418.29l.804.23q.386.11.777.18V11.25h3v2.646q.386-.074.764-.184l1.13-.334a1.12 1.12 0 0 0 .794-1.066v-1.734l-2.687.672v-3l2.687-.672v-1.9a.625.625 0 0 0-.803-.6l-.624.187a10 10 0 0 1-1.26.283V8.25h-3V5.562a10 10 0 0 1-1.26-.27l-.803-.23a8 8 0 0 0-.937-.207z" clip-rule="evenodd" />
</svg>
